src/xmb/monochrome/Non-Redump - Microsoft - Xbox Series X.svg

<svg xmlns="http://www.w3.org/2000/svg" xml:space="preserve" viewBox="0 0 64 64"><path d="M57 31.5s-4.53-12.74-6-14c-.93-3.09-7.09-3.91-9-4-.4-.02-3 1-3 1H25s-2.6-1.02-3-1c-1.91.09-8.07.91-9 4-1.47 1.26-6 14-6 14s-2 7.37-2 12 5.07 7 6 7 2.38-2 2.38-2L17 44.02c2.79-3.7 5-3.52 5-3.52h20s2.21-.18 5 3.52l3.62 4.48s1.45 2 2.38 2 6-2.37 6-7-2-12-2-12M18 26c-1.66 0-3-1.34-3-3s1.34-3 3-3 3 1.34 3 3-1.34 3-3 3m5.68 9.71a3.32 3.32 0 0 1-2.45-2.46h2.45zm0-4.16h-2.42c.32-1.17 1.25-2.1 2.42-2.42zM46 18c1.1 0 2 .9 2 2s-.9 2-2 2-2-.9-2-2 .9-2 2-2M25.39 35.67v-2.42h2.42a3.49 3.49 0 0 1-2.42 2.42m0-4.12V29.1a3.32 3.32 0 0 1 2.45 2.45zM28 24c-.55 0-1-.45-1-1s.45-1 1-1 1 .45 1 1-.45 1-1 1m4.7 2.74h-1.4c-.41 0-.74-.33-.74-.74s.33-.74.74-.74h1.4c.41 0 .74.33.74.74-.02.41-.34.74-.74.74M35 23c0-.55.45-1 1-1s1 .45 1 1-.45 1-1 1-1-.45-1-1m4 12c-1.66 0-3-1.34-3-3s1.34-3 3-3 3 1.34 3 3-1.34 3-3 3m3-9.5c-1.1 0-2-.9-2-2s.9-2 2-2 2 .9 2 2-.9 2-2 2m4 3.5c-1.1 0-2-.9-2-2s.9-2 2-2 2 .9 2 2-.9 2-2 2m4-3.5c-1.1 0-2-.9-2-2s.9-2 2-2 2 .9 2 2-.9 2-2 2" style="fill:#fff"/></svg>

<?xml version="1.0" encoding="utf-8"?>
<svg version="1.1" xmlns="http://www.w3.org/2000/svg" x="0px" y="0px" viewBox="0 0 64 64" style="enable-background:new 0 0 64 64;" xml:space="preserve">
<style type="text/css">
	.st0{fill:#FFFFFF;}
</style>
<path class="st0" d="M57,31.5c0,0-4.53-12.74-6-14c-0.93-3.09-7.09-3.91-9-4c-0.4-0.02-3,1-3,1H25c0,0-2.6-1.02-3-1
	c-1.91,0.09-8.07,0.91-9,4c-1.47,1.26-6,14-6,14s-2,7.37-2,12s5.07,7,6,7c0.93,0,2.38-2,2.38-2L17,44.02c2.79-3.7,5-3.52,5-3.52h20
	c0,0,2.21-0.18,5,3.52l3.62,4.48c0,0,1.45,2,2.38,2s6-2.37,6-7S57,31.5,57,31.5z M18,26c-1.66,0-3-1.34-3-3s1.34-3,3-3s3,1.34,3,3
	S19.66,26,18,26z M23.68,35.71c-1.21-0.29-2.16-1.24-2.45-2.46h2.45V35.71z M23.68,31.55h-2.42c0.32-1.17,1.25-2.1,2.42-2.42V31.55z
	 M46,18c1.1,0,2,0.9,2,2s-0.9,2-2,2s-2-0.9-2-2S44.9,18,46,18z M25.39,35.67v-2.42h2.42C27.48,34.42,26.56,35.35,25.39,35.67z
	 M25.39,31.55v-2.45c1.21,0.29,2.16,1.24,2.45,2.45H25.39z M28,24c-0.55,0-1-0.45-1-1s0.45-1,1-1s1,0.45,1,1S28.55,24,28,24z
	 M32.7,26.74h-1.4c-0.41,0-0.74-0.33-0.74-0.74s0.33-0.74,0.74-0.74h1.4c0.41,0,0.74,0.33,0.74,0.74
	C33.42,26.41,33.1,26.74,32.7,26.74z M35,23c0-0.55,0.45-1,1-1s1,0.45,1,1s-0.45,1-1,1S35,23.55,35,23z M39,35c-1.66,0-3-1.34-3-3
	s1.34-3,3-3s3,1.34,3,3S40.66,35,39,35z M42,25.5c-1.1,0-2-0.9-2-2s0.9-2,2-2s2,0.9,2,2S43.1,25.5,42,25.5z M46,29c-1.1,0-2-0.9-2-2
	s0.9-2,2-2s2,0.9,2,2S47.1,29,46,29z M50,25.5c-1.1,0-2-0.9-2-2s0.9-2,2-2s2,0.9,2,2S51.1,25.5,50,25.5z"/>
</svg>
